!!!!SEGMENT: pl-wtm--r-239-m_moniuszko-stanislaw--utarczka.krn
!!!cenid: 18xx:1645
!!!COM: Moniuszko, Stanisław
!!!COM-rism: pe30008351
!!!CDT: 1819/05/05-1872/06/04
!!!CNT: Polish
!!!OTL: Utarczka
!!!PDT:
!!!AGN: Secular
!!!SMS-siglum: PL-Wtm
!!!SMS-shelfmark: R 239/M
!!!NIFC-rismID: 1001063774
!!!URL-scan: http://repozytorium.nifc.pl/skany/pl-wtm-nut--r229m
!!!ONB-nifc:
!!!SMS-variant:
!!!SMS-altvar:
**kern	**kern	**dynam	**kern	**text	**text	**dynam
*part2	*part2	*part2	*part1	*part1	*part1	*part1
*staff3	*staff2	*	*staff1	*staff1	*staff1	*
*I"[Fortepian]	*	*	*I"[Głos]	*	*	*
*I'pf	*	*	*I'V	*	*	*
*clefF4	*clefG2	*	*clefG2	*	*	*
*	*ok[f#]	*	*ok[f#]	*	*	*
*k[f#]	*k[f#]	*	*k[f#]	*	*	*
*M2/4	*M2/4	*	*M2/4	*	*	*
=1	=1	=1	=1	=1	=1	=1
!!LO:TX:t=P:problem:all\right or left:global
!	!	!	!LO:TX:a:i:t=Presto.	!	!	!
!	!	!	!LO:TX:a:i:u:t=No 20. Utarczka.	!	!	!
8GGG/ 8GG	8r	.	2r	.	.	.
8r	(16G</LL 16B< 16d	.	.	.	.	.
.	16D</JJ)	.	.	.	.	.
8DD/	8r	.	.	.	.	.
8r	(16F#</LL 16A< 16d	.	.	.	.	.
.	16D</JJ)	.	.	.	.	.
=2	=2	=2	=2	=2	=2	=2
8GG/	8r	.	2r	.	.	.
8r	(16G</LL 16B< 16d	.	.	.	.	.
.	16D</JJ)	.	.	.	.	.
8BBB/ 8BB	8r	.	.	.	.	.
8r	(16d/LL 16g	.	.	.	.	.
.	16G/JJ)	.	.	.	.	.
=3	=3	=3	=3	=3	=3	=3
8CC/ 8C	8r	.	2r	.	.	.
8r	16A/LL 16c 16e	.	.	.	.	.
.	16G/JJ	.	.	.	.	.
8AAA/ 8AA	8r	.	.	.	.	.
8r	16e/LL 16g 16cc	.	.	.	.	.
.	16c/JJ	.	.	.	.	.
=4	=4	=4	=4	=4	=4	=4
8DD/ 8D	8r	.	2r	.	.	.
8r	16g/LL 16b	.	.	.	.	.
.	16d/JJ	.	.	.	.	.
8DD/ 8D	8r	.	.	.	.	.
8r	16c/LL 16f# 16a	.	.	.	.	.
.	16d/JJ	.	.	.	.	.
=5	=5	=5	=5	=5	=5	=5
!	!	!	!LO:TX:a:i:u:t=K. Żyglińskiego.	!	!	!
8GG/ 8G	8r	.	8.d/	Żart-	Kró-	.
8r	16B/LL 16g	.	.	.	.	.
.	16d/JJ	.	16e/	-ko,	-dzej	.
8GG/ 8G	8r	.	8.f#/	lot-	cu-	.
8r	16B/LL 16g	.	.	.	.	.
.	16d/JJ	.	16g/	-no	-gle!	.
=6	=6	=6	=6	=6	=6	=6
8FF#/ 8F#	8r	.	8.f#/	sa-	na	.
!	!LO:TX:t=P:problem:skreślona nuta 16f	!	!	!	!	!
8r	(16A/LL 16f# 16a	.	.	.	.	.
.	16d/JJ)	.	16g/	-dzi	dół	.
8FF#/ 8F#	8r	.	8.a/	ni-	gro-	.
8r	(16A/LL 16a	.	.	.	.	.
.	16d/JJ)	.	16b/	-wą	-ty	.
!!LO:LB:g=original
=7	=7	=7	=7	=7	=7	=7
8GG/ 8E	8r	.	8.cc\	si-	koń	.
8r	(16G/LL 16g	.	.	.	.	.
.	16c/JJ)	.	16b\	-wy	do	.
8GG/ 8E	8r	.	8cc\	ru-	ko-	.
8r	16G/LL	.	8ee\	-mak	-nia	.
.	16c/JJ	.	.	.	.	.
=8	=8	=8	=8	=8	=8	=8
8GG/ 8D	8r	.	(4.dd\	mój	w_muł!	.
8r	(16c/LL 16f# 16a	.	.	.	.	.
.	16d/JJ)	.	.	.	.	.
8GG/ 8D	8r	.	.	.	.	.
8r	(16A/LL	.	8cc\)	.	.	.
.	16d/JJ)	.	.	.	.	.
=9	=9	=9	=9	=9	=9	=9
4GG/ 4G	8r	.	8b\	pars-	da-	.
.	(16B/LL 16b	.	8b\	-ka	-lej	.
.	16d/JJ)	.	.	.	.	.
4FF#/ 4F#	8r	.	8.dd\	pia-	ze	.
.	(16A/LL 16a	.	.	.	.	.
.	16d/JJ)	.	16f#/	-ną,	mną	.
=10	=10	=10	=10	=10	=10	=10
4EE/ 4E	8r	.	8g/	wstrzą-	dziel-	.
.	(16B/LL 16g	.	8g/	-sa	-ne	.
.	16e/JJ)	.	.	.	.	.
4BB/	8r	.	8.b/	grzy-	ro-	.
.	(16d/LL 16g	.	.	.	.	.
.	16G/JJ)	.	16d/	-wą,	-ty	.
=11	=11	=11	=11	=11	=11	=11
4CC/ 4C	8r	.	8e/	noz-	w_śro-	.
.	(16c/LL 16e	.	8cc\	-drzem	-dek	.
.	16G/JJ)	.	.	.	.	.
.	.	.	8qcc/	.	.	.
4AAA/ 4AA	8r	.	8b\	wie-	wro-	.
.	(16c/LL 16g	.	8a\	-trzy	-gów	.
.	16e/JJ)	.	.	.	.	.
=12	=12	=12	=12	=12	=12	=12
8DD/ 8D	8r	.	4.a/	bój.	chmur.	.
16r	(16d/LL 16f#	.	.	.	.	.
(16A^\	16a/JJ)	.	.	.	.	.
8d\)	8r	.	.	.	.	.
16r	(16c/LL 16f#	.	8r	.	.	.
(16D^\	16a/JJ)	.	.	.	.	.
!!LO:LB:g=original
=13	=13	=13	=13	=13	=13	=13
*^	*	*	*	*	*	*
2G/)	8GG\	8r	.	8.d/	Pęd	Krzy-	.
.	8rGG	(16B/LL 16g	.	.	.	.	.
.	.	16d/JJ)	.	16e/	mnie	-ki,	.
.	8GG\	8r	.	8.f#/	łech-	błys-	.
.	8rGG	(16B/LL 16g	.	.	.	.	.
.	.	16d/JJ)	.	16g/	-ce	-ki,	.
=14	=14	=14	=14	=14	=14	=14	=14
2F#/	8GG\	8r	.	8.f#/	lek-	ty-	.
.	8rGG	(16A/LL 16a	.	.	.	.	.
.	.	16d/JJ)	.	16g/	-ko,	-łem	.
.	8GG\	8r	.	8.a/	mi-	bło-	.
.	8rGG	(16A/LL 16a	.	.	.	.	.
.	.	16d/JJ)	.	16b/	-ło,	-nie,	.
=15	=15	=15	=15	=15	=15	=15	=15
.	.	.	.	8qdd/	.	.	.
2E/	8GG\	8r	.	8.cc\	w_o-	już	.
.	8rGG	(16G/LL 16g	.	.	.	.	.
.	.	16c/JJ)	.	16b\	-czach	są	.
.	8GG\	8r	.	8cc\	mi-	bli-	.
.	8rGG	(16G/LL	.	8ee\	-ga	-sko,	.
.	.	16c/JJ)	.	.	.	.	.
=16	=16	=16	=16	=16	=16	=16	=16
2D/	8GG\	8r	.	4.dd\	tak	już,	.
.	8r	(16c/LL 16f# 16a	.	.	.	.	.
.	.	16d/JJ)	.	.	.	.	.
.	8GG\	8r	.	.	.	.	.
.	8r	(16A/LL	.	8r	.	.	.
.	.	16d/JJ)	.	.	.	.	.
*v	*v	*	*	*	*	*	*
=17	=17	=17	=17	=17	=17	=17
8GG/ 8G	8r	.	8.b\	jak-	na-	.
8r	(16B/LL 16g 16b	.	.	.	.	.
.	16d/JJ)	.	16b\	-by	-przód!	.
8DD/ 8D	8r	.	8.dd\	mi	na-	.
8r	(16B/LL 16d 16b	.	.	.	.	.
.	16f#/JJ)	.	16f#/	się	-przód!	.
!!LO:LB:g=original
=18	=18	=18	=18	=18	=18	=18
8EE/ 8E	8r	.	8.g/	zda-	pry-	.
8r	(16G/LL 16g	.	.	.	.	.
.	16B/JJ)	.	16g/	-ło,	-sły	.
8BBB/ 8BB	8r	.	8.b/	sni-	ko-	.
8r	(16d/LL 16g	.	.	.	.	.
.	16G/JJ)	.	16d/	-ło,	-nie,	.
=19	=19	=19	=19	=19	=19	=19
(4CC/ 4C	8r	.	8e/	żem	w_kłę-	.
.	(16c/LL 16e 16g	.	8cc\	le-	-by	.
.	16A/JJ)	.	.	.	.	.
4DD/ 4D	8r	.	8.a\	-cą-	wzbił	.
.	(16c/LL 16f#	.	.	.	.	.
.	16A/JJ)	.	16f#/	-cy	się	.
=20	=20	=20	=20	=20	=20	=20
8GGG/) 8GG	8r	.	4g/	ptak.	kurz.	.
8r	(16B/LL 16g	.	.	.	.	.
.	16G/JJ)	.	.	.	.	.
(4D^\	8r	.	4r	.	.	.
.	(16B/LL 16g	.	.	.	.	.
.	16d/JJ)	.	.	.	.	.
=21	=21	=21	=21	=21	=21	=21
8DD/) 8D	8r	.	8.f#/	Wiatr	Z_brze-	.
8r	(16d/LL 16f#	.	.	.	.	.
.	16A/JJ)	.	16f#/	gra	-gów	.
8DD/ 8D	8r	.	8g/	w_u-	bo-	.
!	!LO:TX:t=cres_cen_do.:problem:dynamics with extention lines	!	!	!	!	!
8r	(16d/LL 16f#	<	8g#X/	-szach,	-ru	.
.	16A/JJ)	.	.	.	.	.
=22	=22	=22	=22	=22	=22	=22
8DD/ 8D	8r	.	8.a\	ser-	ry-	.
8r	(16c#X/LL 16e 16g	.	.	.	.	.
.	16A/JJ)	.	16a\	-ce	-kły	.
8DD/ 8D	8r	.	8b\	bi-	dzia-	.
8r	(16e/LL 16g	.	8cc#X\	-je,	-ła,	.
.	16A/JJ)	.	.	.	.	.
=23	=23	=23	=23	=23	=23	=23
8DD/ 8D	8r	.	8dd\	w_ży-	strzel-	.
8r	(16B/LL 16g 16b	.	8cc#X\	-łach	-by	.
.	16d/JJ)	.	.	.	.	.
8DD/ 8D	8r	.	8dd\	ki-	za-	.
8r	(16B-X/LL 16g 16b-X	.	8ee\	-pi	-grzmiał	.
.	16d/JJ)	[[	.	.	.	.
!!LO:PB:g=original
=24	=24	=24	=24	=24	=24	=24
!	!	!LO:DY:t=f.	!	!	!	!
8DD/ 8D	8r	f	4.ff#\	krew	huk;	.
8r	(16A/LL 16f# 16a	.	.	.	.	.
.	16d/JJ)	.	.	.	.	.
4D^/	8r	.	.	.	.	.
.	16fn/LL 16a	.	8r	.	.	.
.	16d/JJ	.	.	.	.	.
=25	=25	=25	=25	=25	=25	=25
!	!	!LO:DY:t=p.	!	!	!	!
4C#X^/	8r	p	8a/	myśl	las	.
.	(16e/LL 16a	.	8a/	się	się	.
.	16A/JJ)	.	.	.	.	.
4BB^/	8r	.	8.dd\	tłu-	wzdry-	.
.	(16d/LL 16f#	.	.	.	.	.
.	16B/JJ)	.	16f#/	-mnie,	-gnął,	.
=26	=26	=26	=26	=26	=26	=26
4AA^/	8r	.	8.f#/	ciem-	zie-	.
!	!LO:TX:a:t=P:problem:mixed beam	!	!	!	!	!
.	(16c\LL 16f#	.	.	.	.	.
.	16F#/JJ)	.	16f#/	-no	-mia	.
4GG^/	8r	.	8b/	wi-	drża-	.
!	!LO:TX:a:t=P:problem:mixed beam	!	!	!	!	!
.	(16B\LL 16d	.	8d/	-je,	-ła,	.
.	16G/JJ)	.	.	.	.	.
=27	=27	=27	=27	=27	=27	=27
8AA/	8r	.	8d/	jak	dzi-	.
8r	(16F#</LL 16d	.	8f#/	las	-ko	.
.	16A</JJ)	.	.	.	.	.
8AAA/ 8AA	8r	.	8.a/	dzi-	za-	.
8r	(16c#X/LL 16e	.	.	.	.	.
.	16A/JJ)	.	16g/	-kich	-wył	.
=28	=28	=28	=28	=28	=28	=28
((4DD/ 4D	8r	.	4.f#/	drzew.	wróg.	.
.	(16d/LL 16f#	.	.	.	.	.
.	16A/JJ)	.	.	.	.	.
8BBB/)) 8BB	8r	.	.	.	.	.
8r	(16d/LL 16f#	.	8r	.	.	.
.	16B/JJ)	.	.	.	.	.
!!LO:LB:g=original
=29	=29	=29	=29	=29	=29	=29
!	!LO:TX:a:t=P:problem:poprawki ołówkiem	!	!	!	!	!
4F#^\	8r	p	8.f#/	Sły-	W_py-	.
.	16c#X/LL 16f#	.	.	.	.	.
.	16F#X/JJ	.	16f#/	-szę,	-le,	.
8Fn\L	16d/LL 16g	.	8g/	sły-	dy-	.
!	!	!LO:HP:t=crescendo.	!	!	!	!
.	16B/JJ	<	.	.	.	.
8E\J	16d/LL 16g#X	.	8g#X/	-szę	-mie,	.
.	16B/JJ	.	.	.	.	.
=30	=30	=30	=30	=30	=30	=30
*	*^	*	*	*	*	*
!	!LO:TX:a:t=P:problem:poprawki ołówkiem	!	!	!	!	!	!
4A^\	16c#X/LL	8ryy	.	8.a\	głoś-	bia-	.
.	16e/	.	.	.	.	.	.
.	16a/	8a\	.	.	.	.	.
.	16e/JJ	.	.	16a\	-niej,	-łej	.
8A-X\L	8b-X/L	16d\LL	.	8b-X\	bli-	chmu-	.
.	.	16fn\	.	.	.	.	.
8G\J	8bn/J	16d\	.	8bn\	-żej	-rze	.
.	.	16f\JJ	.	.	.	.	.
*	*v	*v	*	*	*	*	*
=31	=31	=31	=31	=31	=31	=31
.	.	.	8qdd/	.	.	.
4c\	8r	.	8.cc\	ło-	zni-	.
.	(16e/LL 16cc	.	.	.	.	.
.	16g/JJ)	.	16b\	-mot,	-knął	.
4Fn\	8r	.	8cc\	tę-	z_jeźd-	.
.	(16b/LL 16dd	.	8dd\	-tent,	-com	.
.	16a/JJ)	.	.	.	.	.
=32	=32	=32	=32	=32	=32	=32
!	!	!LO:DY:t=ff.	!	!	!	!
8.EE/L 8.E	8r	ff	4.ee\	szczęk,	koń,	.
.	(16g#X/LL 16b 16ee	.	.	.	.	.
16EE-X/ 16E-X	16e/JJ)	.	.	.	.	.
8.DD/ 8.D	8r	.	.	.	.	.
.	(16gn/LL 16b-X 16ee	.	8r	.	.	.
16DD-X/Jk 16D-X	16e/JJ)	.	.	.	.	.
=33	=33	=33	=33	=33	=33	=33
!	!LO:TX:a:t=P:problem:poprawki ołówkiem	!	!	!	!	!
(4CC/ 4C	16r	.	8a/	gra-	tyl-	.
.	16A/LL	.	.	.	.	.
.	16d#X/ 16f# 16a	>	8a/	-nie	-ko	.
.	16A/JJ	.	.	.	.	.
8BBB/L 8BB	16dn/LL 16e#X 16g#X	.	8.dd\	trą-	szab-	.
.	16G#X/	.	.	.	.	.
8BBB-X/J) 8BB-X	16c#X/ 16en 16gn	]	.	.	.	.
.	16Gn/JJ	.	16d/	-bek,	-le	.
!!LO:LB:g=original
=34	=34	=34	=34	=34	=34	=34
!	!LO:TX:a:t=P:problem:poprawki ołówkiem	!	!	!	!	!
4AAA/ 4AA	16r	.	8f#/	wy-	bły-	.
.	(16A/LL	.	.	.	.	.
.	16d/ 16f#	.	8f#/	-cie	-szą	.
.	16A/JJ)	.	.	.	.	.
4GG#X/	16r	.	8.b\	spi-	w gó-	.
.	(16B/LL	.	.	.	.	.
.	16d/ 16fn	.	.	.	.	.
.	16B/JJ)	.	16b\	-ży,	-rze	.
=35	=35	=35	=35	=35	=35	=35
!	!LO:TX:a:t=P:problem:poprawki ołówkiem	!	!	!	!	!
8AA/	16r	.	8.b/	rże-	i	.
.	(16A/LL	.	.	.	.	.
8r	16d/ 16e	.	.	.	.	.
.	16A/JJ)	.	16a/	-nie,	w_broń	.
4AA/	16r	.	8g/	krzyk	dzwo-	.
.	(16A/LL	.	.	.	.	.
.	16c/ 16e	.	8e/	i	-ni	.
.	16A/JJ)	.	.	.	.	.
=36	=36	=36	=36	=36	=36	=36
!	!LO:TX:a:t=P:problem:poprawki ołówkiem	!	!	!	!	!
8D\	16r	.	4d/	jęk.	broń.	.
!	!LO:TX:a:t=P:problem:mixed beam	!	!	!	!	!
.	16d/LL	.	.	.	.	.
8r	16dd\	.	.	.	.	.
.	16d/JJ	.	.	.	.	.
(4FF#^^>\ 4F#	16r	.	4r	.	.	.
!	!LO:TX:a:t=P:problem:mixed beam	!	!	!	!	!
.	(16F#</LL	.	.	.	.	.
.	16A</ 16c 16d	.	.	.	.	.
.	16F#</JJ)	.	.	.	.	.
=37	=37	=37	=37	=37	=37	=37
*	*^	*	*	*	*	*
!	!	!LO:TX:a:t=P:problem:mixed beam	!	!	!	!	!
4GG\	8r	(<16D</LL	.	8.d/	wi-	Tyl-	.
.	.	16G</))	.	.	.	.	.
.	8g/	(>16B\	.	.	.	.	.
.	.	16d\JJ)	.	16e/	-dzę,	-ko	.
!	!	!LO:TX:a:t=P:problem:mixed beam	!	!	!	!	!
4GG\	8r	(<16D</LL	.	8f#/	wi-	blas-	.
.	.	16G</)	.	.	.	.	.
.	8g/	(>16B\	.	8g/	-dzę,	-ki	.
.	.	16d\JJ)	.	.	.	.	.
=38	=38	=38	=38	=38	=38	=38	=38
!	!	!LO:TX:a:t=P:problem:mixed beam	!	!	!	!	!
4GG\	8r	(<16D</LL	.	8.f#/	bły-	strza-	.
.	.	16F#</)	.	.	.	.	.
.	8a/	(>16A\	.	.	.	.	.
.	.	16d\JJ)	.	16g/	-szczy,	-łów	.
!	!	!LO:TX:a:t=P:problem:mixed beam	!	!	!	!	!
4GG\	8r	(<16D</LL	.	8a/	swie-	świe-	.
.	.	16F#</)	.	.	.	.	.
.	8a/	(>16A\	.	8b\	-ci	-cą	.
.	.	16d\JJ)	.	.	.	.	.
!!LO:LB:g=original
=39	=39	=39	=39	=39	=39	=39	=39
!	!	!LO:TX:a:t=P:problem:mixed beam	!	!	!	!	!
4GG\	8r	(<16E</LL	.	8.cc#X\	brat-	a	.
.	.	16G</)	.	.	.	.	.
.	8g/ 8cc	(>16c\	.	.	.	.	.
.	.	16e\JJ)	.	16dd\	-nich	pro-	.
!	!	!LO:TX:a:t=P:problem:mixed beam	!	!	!	!	!
4GG\	8r	(<16E</LL	.	8dd#X\	pół-	-por-	.
.	.	16G</)	.	.	.	.	.
.	8g/ 8cc	(>16c\	.	8ee\	-ków	-ców	.
.	.	16e\JJ)	.	.	.	.	.
=40	=40	=40	=40	=40	=40	=40	=40
.	.	.	.	(8qee/	.	.	.
!	!	!LO:TX:a:t=P:problem:mixed beam	!	!	!	!	!
8GG\	8r	(<16F#</LL	.	4.a\)	znak,	szum	.
.	.	16A</)	.	.	.	.	.
8r	8a/	(>16c\	.	.	.	.	.
.	.	16d\JJ)	.	.	.	.	.
!	!	!LO:TX:a:t=P:problem:mixed beam	!	!	!	!	!
8GG\	8r	(<16F#</LL	.	.	.	.	.
.	.	16A</)	.	.	.	.	.
8r	8a/	(>16c\	.	8r	.	.	.
.	.	16d\JJ)	.	.	.	.	.
*	*v	*v	*	*	*	*	*
=41	=41	=41	=41	=41	=41	=41
!LO:TX:a:t=P:problem:mixed beam	!	!	!	!	!	!
(16GG/LL 16BB 16D	2ryy	.	8b\	już	i	.
16G/)	.	.	.	.	.	.
(>16d>\ 16g> 16b>	.	.	8b\	z_sy-	kul	.
16B>\JJ)	.	.	.	.	.	.
!LO:TX:a:t=P:problem:mixed beam	!	!	!	!	!	!
(16FF#/LL 16AA 16D	.	.	8.dd\	-na-	swi-	.
16F#/)	.	.	.	.	.	.
(16e>\ 16g> 16b>	.	.	.	.	.	.
16A/JJ)	.	.	16f#/	-mi	-sty	.
=42	=42	=42	=42	=42	=42	=42
!LO:TX:a:t=P:problem:mixed beam	!	!	!	!	!	!
(16EE/LL 16GG 16BB	2ryy	.	8g/	na	jak	.
16E/)	.	.	.	.	.	.
(16B>\ 16e> 16g>	.	.	8g/	żer	wiatr	.
16G/JJ)	.	.	.	.	.	.
!LO:TX:a:t=P:problem:mixed beam	!	!	!	!	!	!
(16BBB/LL 16GG	.	.	8.b\	le-	le-	.
16BB/)	.	.	.	.	.	.
(16d>\ 16g>	.	.	.	.	.	.
16G/JJ)	.	.	16d/	-ci	-cą	.
=43	=43	=43	=43	=43	=43	=43
(16CC/LL	8r	.	8e/	bia-	przez	.
16C/JJ)	.	.	.	.	.	.
8r	(16A</LL 16e	.	8cc\	-ło-	wal-	.
.	16G</JJ)	.	.	.	.	.
!LO:TX:a:t=P:problem:mixed beam	!	!	!	!	!	!
.	.	.	8qcc/	.	.	.
(>16CC/LL	8r	.	8b\	-pió-	-czą-	.
16C\JJ)	.	.	.	.	.	.
8r	(16F#</LL 16d	.	8a\	-ry	-cych	.
.	16A</JJ)	.	.	.	.	.
!!LO:PB:g=original
=44	=44	=44	=44	=44	=44	=44
*	*	*	*2\right	*	*	*
!	!	!	!	!	!	!LO:DY:a:t=fff.
8BBB/ 8BB	8..r	fff	(2dd\	ptak	tłum	fff
16.r	.	.	.	.	.	.
32BB\KKL 32D 32G	32g\ 32gg	.	.	.	.	.
8..BB\ 8..D 8..G	8..g/L 8..gg	.	.	.	.	.
32BB\Jkk 32D 32F#	32f#/Jkk 32ff#	.	.	.	.	.
=45	=45	=45	=45	=45	=45	=45
8..BB/L 8..D 8..F#	8..f#/L 8..ff#	.	4...dd\)	.	.	.
32BB/Jkk 32D 32Fn	32fn/Jkk 32ffn	.	.	.	.	.
8..BB/L 8..D 8..F	8..f/L 8..ff	.	.	.	.	.
!LO:TX:t=P:problem:skreślona nuta 32E-	!	!	!	!	!	!
32CC/Jkk 32C 32E-X	32e-X/Jkk 32ee-X	.	32ee-X\	to	przez	.
=46	=46	=46	=46	=46	=46	=46
!LO:TX:t=P:problem:skreślona nuta 32E-	!	!	!	!	!	!
8CC/ 8C 8E-X	8e-X/ 8ee-X	.	(2ee-X\	ptak!	tłum!	.
16.r	16.r	.	.	.	.	.
32C\ 32E- 32F#X	32a\ 32ee- 32aa	.	.	.	.	.
8C^^/L 8E- 8F#	8a^^\L 8ee- 8aa	.	.	.	.	.
8C^^/J 8E- 8G	8g^^\J 8ee- 8gg	.	.	.	.	.
=47	=47	=47	=47	=47	=47	=47
2C^^;\ 2E-X 2A-X	[2fn^^;\ [2ffn	.	(4ee;\)	.	.	.
.	.	.	[4dd#X\)	.	.	.
=48	=48	=48	=48	=48	=48	=48
!	!	!LO:DY:t=ff.	!	!	!	!
8CC/ 8C	(8f^/L] 8ff]	ff	8dd#\]	.	.	.
*tremolo	*	*	*	*	*	*
8C\ 8En 8AnL	16e/L) 16ee	.	8ee\	z_sy-	Kul	.
.	16a/J	.	.	.	.	.
8C\ 8En 8An	8cc/|	.	8cc\	-na-	swi-	.
8C\ 8En 8AnJ	(16B/L 16a	.	8a/	-mi	-sty	.
*Xtremolo	*	*	*	*	*	*
.	16e/JJ)	.	.	.	.	.
!!LO:LB:g=original
=49	=49	=49	=49	=49	=49	=49
!	!LO:TX:a:t=P:problem:poprawki ołówkiem	!	!	!	!	!
8DD/ 8D	8(e/L 8ee	.	8cc#X\	na	jak	.
*tremolo	*	*	*	*	*	*
8D\ 8G 8BL	16d/L 16dd)	.	8dd\	żer	wiatr	.
.	16g/J	.	.	.	.	.
8D\ 8G 8B	8b/|	.	8b\	le-	le-	.
8D\ 8G 8BJ	(16B/ 16gL	.	8g\	-ci	-cą	.
*Xtremolo	*	*	*	*	*	*
.	16d/JJ)	.	.	.	.	.
=50	=50	=50	=50	=50	=50	=50
!	!	!LO:DY:b=2:t=sff.	!LO:TX:a:i:t=ralant.	!	!	!
2DD^/ 2D	8r	.sff	8.d/	bia-	przez	.
.	16d^/LL 16g 16b	.	.	.	.	.
.	[16g/J	.	16d/	-ło-	wal-	.
.	8c^/ 8g] 8a	.	8dd;\L	-pió-	-czą-	.
.	8A^;/J 8d 8f#	.	32dd\LL	.	.	.
.	.	.	32cc\JJJ	.	.	.
.	.	.	32b\LLL	-ry	-cych	.
.	.	.	32a\JJJ	.	.	.
=51	=51	=51	=51	=51	=51	=51
8GG\	8B/ 8g	.	4g/	ptak.	tłum.	.
!	!	!LO:HP:a	!	!	!	!
8rFF	(16G</LL 16B< 16d	<	.	.	.	.
.	16D</JJ)	.	.	.	.	.
8DD\	8r	.	4r	.	.	.
8rFF	(16G</LL 16B< 16d	.	.	.	.	.
.	16D</JJ)	.	.	.	.	.
=52:|!	=52:|!	=52:|!	=52:|!	=52:|!	=52:|!	=52:|!
8GG\	8r	.	2r	.	.	.
8rFF	(16G</LL 16B <16d	.	.	.	.	.
.	16D</JJ)	.	.	.	.	.
8DD\	8r	[	.	.	.	.
8rFF	16f#/LL 16a 16dd	.	.	.	.	.
.	[16d/JJ	.	.	.	.	.
=53	=53	=53	=53	=53	=53	=53
!	!LO:TX:t=P:problem:skreślona nuta 8d	!LO:DY:t=sff.	!	!	!	!
8GGG/ 8GG	8d\] 8g 8b 8dd 8gg	sff	2r	.	.	.
8r	8r	.	.	.	.	.
4r	4r	.	.	.	.	.
!!LO:LB:g=original
==	==	==	==	==	==	==
*-	*-	*-	*-	*-	*-	*-
!!!system-decoration: s1{(s2,s3)}
!!!RDF**kern: < = below
!!!RDF**kern: > = above
!!!ENC: Marta Chmielewska
!!!END: 2021-04-16
!!!ENC:Berenika Jozajtis
!!!END:2021-03-29
!!!RDF**kern: | = vertical stroke
